X:1
T:Comfort (Gabriel), CMD
T:Charles Hutchinson Gabriel (1856-1932)
T:Comfort (Gabriel), CMD
T:Public Domain
C:Charles Hutchinson Gabriel (1856-1932)
Z:Public Domain
%%score ( 1 2 ) ( 3 4 )
L:1/8
M:3/4
K:Eb
V:1 treble 
V:2 treble 
V:3 bass 
V:4 bass 
V:1
 E2 | [EG]>[E^F] [EG]3 [=FA] | [GB]>[^F=A] [GB]2 [Ee]2 | [Fd]3 [Ac] [GB][FA] | [EG]4 E2 | %5
 [EG]>[E^F] [EG]3 [=FA] | [GB]>[^F=A] [GB]2 [Gc]2 | [Fd]3 [Fd] [Fe][E=A] | [DB]4 [GB]2 | %9
 [Ac][Ad] [Ac]3 [DF] | [DF][EG] [DA]3 [F=A] | [FB]3 [Dc] [EB][FA] | [EG]4 [GB]2 | %13
 [Ge]3 [Ee] [Ed][Ac] | [GB][Ac] [GB]2 E2 | [EF][FA] [EG]2 [DF]2 | E4 |] %17
V:2
 E2 | x6 | x6 | x6 | x4 E2 | x6 | x6 | x6 | x6 | x6 | x6 | x6 | x6 | x6 | x4 E2 | x6 | E4 |] %17
V:3
 [E,G,]2 | [E,B,]>[E,=A,] [E,B,]3 [E,B,] | [E,E]>[E,E] [E,E]2 [G,B,]2 | B,3 B, [B,,B,][B,,B,] | %4
 [E,B,]4 [E,G,]2 | [E,B,]>[E,=A,] [E,B,]3 [E,B,] | [E,E]>[E,E] [E,E]2 [E,B,]2 | %7
 [F,B,]3 [F,B,] [F,C][F,C] | [B,,B,]4 [B,,B,]2 | [B,,D][B,,D] [B,,D]3 [B,,B,] | %10
 [A,B,][G,B,] [F,B,]3 [E,C] | [D,B,]3 [B,,B,] [C,B,][D,B,] | [E,B,]4 [E,E]2 | %13
 [E,B,]3 [G,B,] [A,C][A,D] | [E,E][E,E] [E,E]2 [G,B,]2 | [A,C][F,C] B,2 [B,,A,]2 | [E,G,]4 |] %17
V:4
 x2 | x6 | x6 | B,3 B, x2 | x6 | x6 | x6 | x6 | x6 | x6 | x6 | x6 | x6 | x6 | x6 | x2 B,2 x2 | %16
 x4 |] %17

